dist/static/images/icons/svg/lectorium.svg

<svg width="257" height="165" viewBox="0 0 257 165" fill="none" xmlns="http://www.w3.org/2000/svg">
<rect x="132.867" y="100.473" width="123.185" height="63.7769" rx="5" fill="#D3D3D3"/>
<circle cx="164.318" cy="132.798" r="25.336" fill="white"/>
<path d="M140.73 6.99121V17.4751" stroke="#D3D3D3" stroke-linecap="round"/>
<path d="M156.457 6.99121V17.4751" stroke="#D3D3D3" stroke-linecap="round"/>
<path d="M172.182 6.99121V17.4751" stroke="#D3D3D3" stroke-linecap="round"/>
<path d="M144.225 6.99121V17.4751" stroke="#D3D3D3" stroke-linecap="round"/>
<path d="M159.951 6.99121V17.4751" stroke="#D3D3D3" stroke-linecap="round"/>
<path d="M175.676 6.99121V17.4751" stroke="#D3D3D3" stroke-linecap="round"/>
<rect x="1.44531" y="0.501953" width="122.185" height="163.247" rx="4.5" stroke="#D3D3D3"/>
<path d="M18.418 23.5908H107.968" stroke="#D3D3D3"/>
<path d="M18.418 30.5801H107.968" stroke="#D3D3D3"/>
<path d="M18.418 37.5693H107.968" stroke="#D3D3D3"/>
<path d="M18.418 65.5264H107.968" stroke="#D3D3D3"/>
<path d="M18.418 107.462H107.968" stroke="#D3D3D3"/>
<path d="M18.418 72.5156H107.968" stroke="#D3D3D3"/>
<path d="M18.418 114.451H107.968" stroke="#D3D3D3"/>
<path d="M18.418 93.4834H107.968" stroke="#D3D3D3"/>
<path d="M18.418 135.419H107.968" stroke="#D3D3D3"/>
<path d="M18.418 58.5371H107.968" stroke="#D3D3D3"/>
<path d="M18.418 100.473H107.968" stroke="#D3D3D3"/>
<path d="M18.418 79.5049H107.968" stroke="#D3D3D3"/>
<path d="M18.418 121.44H107.968" stroke="#D3D3D3"/>
<path d="M18.418 51.5479H107.968" stroke="#D3D3D3"/>
<path d="M18.418 44.5586H107.968" stroke="#D3D3D3"/>
<path d="M18.418 86.4941H107.968" stroke="#D3D3D3"/>
<path d="M18.418 128.43H107.968" stroke="#D3D3D3"/>
<rect x="132.867" y="40.1904" width="98.7231" height="49.7984" rx="5" fill="#D3D3D3"/>
<rect x="235.586" y="40.6904" width="19.9677" height="48.7984" rx="4.5" stroke="#D3D3D3"/>
<rect x="133.367" y="0.501953" width="48.7984" height="22.5887" rx="4.5" stroke="#D3D3D3"/>
<circle cx="199.265" cy="12.233" r="7.8629" fill="#D3D3D3"/>
<circle cx="223.728" cy="12.233" r="7.8629" fill="#D3D3D3"/>
<circle cx="248.189" cy="12.233" r="7.8629" fill="#D3D3D3"/>
<circle cx="245.568" cy="50.6736" r="4.74194" stroke="#D3D3D3"/>
<circle cx="245.568" cy="65.5261" r="4.74194" stroke="#D3D3D3"/>
<circle cx="245.568" cy="80.3787" r="4.74194" stroke="#D3D3D3"/>
<rect x="149.467" y="8.73828" width="0.873656" height="0.873656" rx="0.436828" fill="#D3D3D3"/>
<rect x="165.193" y="8.73828" width="0.873656" height="0.873656" rx="0.436828" fill="#D3D3D3"/>
<rect x="149.467" y="13.9805" width="0.873656" height="0.873656" rx="0.436828" fill="#D3D3D3"/>
<rect x="165.193" y="13.9805" width="0.873656" height="0.873656" rx="0.436828" fill="#D3D3D3"/>
<circle cx="164.319" cy="132.797" r="0.873656" fill="#D3D3D3"/>
<path d="M164.672 109.292C164.477 109.097 164.16 109.097 163.965 109.292L160.783 112.474C160.588 112.669 160.588 112.986 160.783 113.181C160.978 113.376 161.295 113.376 161.49 113.181L164.318 110.353L167.147 113.181C167.342 113.376 167.659 113.376 167.854 113.181C168.049 112.986 168.049 112.669 167.854 112.474L164.672 109.292ZM164.818 132.797V109.646H163.818V132.797H164.818Z" fill="#D3D3D3"/>
<rect x="141.23" y="46.8057" width="7.73656" height="12.9785" rx="2" fill="#D3D3D3" stroke="white"/>
<rect x="156.082" y="46.8057" width="7.73656" height="12.9785" rx="2" fill="#D3D3D3" stroke="white"/>
<rect x="170.934" y="46.8057" width="7.73656" height="12.9785" rx="2" fill="#D3D3D3" stroke="white"/>
<rect x="185.787" y="46.8057" width="7.73656" height="12.9785" rx="2" fill="#D3D3D3" stroke="white"/>
<rect x="200.639" y="46.8057" width="7.73656" height="12.9785" rx="2" fill="#D3D3D3" stroke="white"/>
<rect x="215.49" y="46.8057" width="7.73656" height="12.9785" rx="2" fill="#D3D3D3" stroke="white"/>
<rect x="143.352" y="48.9268" width="3.49462" height="8.73656" fill="white"/>
<rect x="158.203" y="48.9268" width="3.49462" height="8.73656" fill="white"/>
<rect x="173.055" y="48.9268" width="3.49462" height="8.73656" fill="white"/>
<rect x="187.908" y="48.9268" width="3.49462" height="8.73656" fill="white"/>
<rect x="202.76" y="48.9268" width="3.49462" height="8.73656" fill="white"/>
<rect x="217.611" y="48.9268" width="3.49462" height="8.73656" fill="white"/>
<circle cx="224.602" cy="132.798" r="25.336" fill="white"/>
<path d="M241.999 117.017C242.009 116.741 241.792 116.51 241.516 116.5L237.019 116.349C236.743 116.34 236.512 116.556 236.502 116.832C236.493 117.108 236.709 117.339 236.985 117.348L240.983 117.483L240.848 121.481C240.839 121.757 241.055 121.988 241.331 121.997C241.607 122.006 241.839 121.79 241.848 121.514L241.999 117.017ZM224.943 133.163L241.841 117.365L241.158 116.635L224.26 132.433L224.943 133.163Z" fill="#D3D3D3"/>
<circle cx="224.602" cy="132.797" r="0.873656" fill="#D3D3D3"/>
</svg>

<svg width="257" height="165" viewBox="0 0 257 165" fill="none" xmlns="http://www.w3.org/2000/svg"><rect x="132.867" y="100.473" width="123.185" height="63.777" rx="5" fill="#D3D3D3"/><circle cx="164.318" cy="132.798" r="25.336" fill="#fff"/><path d="M140.73 6.991v10.484m15.727-10.484v10.484m15.725-10.484v10.484M144.225 6.991v10.484m15.726-10.484v10.484m15.725-10.484v10.484" stroke="#D3D3D3" stroke-linecap="round"/><rect x="1.445" y=".502" width="122.185" height="163.247" rx="4.5" stroke="#D3D3D3"/><path d="M18.418 23.59h89.55m-89.55 6.99h89.55m-89.55 6.99h89.55m-89.55 27.956h89.55m-89.55 41.936h89.55m-89.55-34.946h89.55m-89.55 41.935h89.55m-89.55-20.968h89.55m-89.55 41.936h89.55m-89.55-76.882h89.55m-89.55 41.936h89.55m-89.55-20.968h89.55m-89.55 41.935h89.55m-89.55-69.892h89.55m-89.55-6.989h89.55m-89.55 41.935h89.55m-89.55 41.936h89.55" stroke="#D3D3D3"/><rect x="132.867" y="40.19" width="98.723" height="49.798" rx="5" fill="#D3D3D3"/><rect x="235.586" y="40.69" width="19.968" height="48.798" rx="4.5" stroke="#D3D3D3"/><rect x="133.367" y=".502" width="48.798" height="22.589" rx="4.5" stroke="#D3D3D3"/><circle cx="199.265" cy="12.233" r="7.863" fill="#D3D3D3"/><circle cx="223.728" cy="12.233" r="7.863" fill="#D3D3D3"/><circle cx="248.189" cy="12.233" r="7.863" fill="#D3D3D3"/><circle cx="245.568" cy="50.674" r="4.742" stroke="#D3D3D3"/><circle cx="245.568" cy="65.526" r="4.742" stroke="#D3D3D3"/><circle cx="245.568" cy="80.379" r="4.742" stroke="#D3D3D3"/><rect x="149.467" y="8.738" width=".874" height=".874" rx=".437" fill="#D3D3D3"/><rect x="165.193" y="8.738" width=".874" height=".874" rx=".437" fill="#D3D3D3"/><rect x="149.467" y="13.98" width=".874" height=".874" rx=".437" fill="#D3D3D3"/><rect x="165.193" y="13.98" width=".874" height=".874" rx=".437" fill="#D3D3D3"/><circle cx="164.319" cy="132.797" r=".874" fill="#D3D3D3"/><path d="M164.672 109.292a.5.5 0 00-.707 0l-3.182 3.182a.5.5 0 00.707.707l2.828-2.828 2.829 2.828a.5.5 0 00.707-.707l-3.182-3.182zm.146 23.505v-23.151h-1v23.151h1z" fill="#D3D3D3"/><rect x="141.23" y="46.806" width="7.737" height="12.979" rx="2" fill="#D3D3D3" stroke="#fff"/><rect x="156.082" y="46.806" width="7.737" height="12.979" rx="2" fill="#D3D3D3" stroke="#fff"/><rect x="170.934" y="46.806" width="7.737" height="12.979" rx="2" fill="#D3D3D3" stroke="#fff"/><rect x="185.787" y="46.806" width="7.737" height="12.979" rx="2" fill="#D3D3D3" stroke="#fff"/><rect x="200.639" y="46.806" width="7.737" height="12.979" rx="2" fill="#D3D3D3" stroke="#fff"/><rect x="215.49" y="46.806" width="7.737" height="12.979" rx="2" fill="#D3D3D3" stroke="#fff"/><path fill="#fff" d="M143.352 48.927h3.495v8.737h-3.495zm14.851 0h3.495v8.737h-3.495zm14.852 0h3.495v8.737h-3.495zm14.853 0h3.495v8.737h-3.495zm14.852 0h3.495v8.737h-3.495zm14.851 0h3.495v8.737h-3.495z"/><circle cx="224.602" cy="132.798" r="25.336" fill="#fff"/><path d="M241.999 117.017a.5.5 0 00-.483-.517l-4.497-.151a.5.5 0 10-.034.999l3.998.135-.135 3.998a.5.5 0 101 .033l.151-4.497zm-17.056 16.146l16.898-15.798-.683-.73-16.898 15.798.683.73z" fill="#D3D3D3"/><circle cx="224.602" cy="132.797" r=".874" fill="#D3D3D3"/></svg>
